X:1
T:Title
%%score { ( 1 4 ) | ( 2 3 ) }
L:1/8
M:6/4
K:Bb
V:1 treble nm="Grand Piano"
V:4 treble 
V:2 bass 
V:3 bass 
V:1
 z6 z4 [DF]2 | [DF]2 [DB]2 [EG]2 [DF]2 [DB]2 [EG]2 | [DF]2 [FB]2 c2 d4 dd | d2 c2 =B2 d2 c2 A2 | %4
 [EG]6 [DF]4 [DF]2 | [DF]2 [DB]2 [EG]2 [DF]2 [DB]2 [EG]2 | [DF]2 [FB]2 c2 d4 [Fd][Fd] | %7
 [Fd]2 [Fc]2 [FA]2 [=Ec]2 [EB]2 [EG]2 | F12 | d4 [Fd][Fd] [Ec]2 [EB]2 [EG]2 | [DB]6 .[DF]6 | %11
 [Ge]2 e2 e2 [GB]4 [^Fc]2 | [Fd]12[K:bass][K:treble] | c2 d2 c2 B2 A2 G2 | %14
 [_AB]2 [Ac]2 [Ad]2 [Ge]4 GG | F2 B2 d2 c2 G2 A2 |[M:5/4] [DB]2- [DB]2- [DB]6 |] %17
V:2
 z6 z4 [B,,B,]2 | [B,,B,]2 [B,,F,]2 [B,,B,]2 [B,,B,]2 [B,,F,]2 [B,,B,]2 | %2
 [B,,B,]2 [D,B,]2[K:treble] [F,A,F]2 [B,F]4 [B,F][B,F] | %3
 [F,B,F]2[K:bass] [F,A,F]2 [F,_A,F]2 [F,B,F]2 [F,=A,F]2 [F,CE]2 | [B,,B,]6 [B,,B,]4 [B,,B,]2 | %5
 [B,,B,]2 [B,,F,]2 [B,,B,]2 [B,,B,]2 [B,,F,]2 [B,,B,]2 | %6
 [B,,B,]2 [D,B,]2[K:treble] [F,A,F]2 [B,F]4[K:bass] [B,,B,][B,,B,] | %7
 [C,A,]2 [C,A,]2 [C,C]2 [C,G,]2 [C,G,]2 [C,B,]2 | [F,A,]12 | %9
 [B,F]4 [B,,B,][B,,A,] [B,,G,]2 [B,,G,]2 [B,,B,]2 | [B,,F,]6 .[B,,B,]6 | %11
 z2[K:treble] G2 G2[K:bass] [B,,B,]4 [B,,B,]2 | .[B,,B,]4 F,2 z4[K:treble] [B,F]2 | %13
 [A,D^F]2 [A,DF]2 [A,DF]2 [G,DG]2 [G,CF]2[K:bass] [G,B,]2 | %14
 [F,B,]2 [F,B,]2 [B,,B,]2 [E,B,]4 [E,B,E][E,B,E] | %15
 [F,B,D]2 [F,B,D]2 [F,B,F]2 [F,A,E]2 [F,A,E]2 [F,CE]2 |[M:5/4] [B,,B,]2- [B,,B,]2- [B,,B,]6 |] %17
V:3
 x12 | x12 | x4[K:treble] x8 | x2[K:bass] x10 | x12 | x12 | x4[K:treble] x6[K:bass] x2 | x12 | %8
 x12 | x12 | x12 | [B,,B,]6[K:treble][K:bass] z6 | x10[K:treble] x2 | x10[K:bass] x2 | x12 | x12 | %16
[M:5/4] x10 |] %17
V:4
 x12 | x12 | x12 | x12 | x12 | x12 | x12 | x12 | x12 | x12 | x12 | x12 | %12
 z2[K:bass] D,2 B,2 B,4[K:treble] d2 | x12 | x12 | x12 |[M:5/4] x10 |] %17

